dist/img/svg/green-earth.svg

<svg width="78" height="77" viewBox="0 0 78 77" fill="none" xmlns="http://www.w3.org/2000/svg">
<path d="M76.826 25.7673H69.251C68.4095 23.7907 67.3726 21.9032 66.1556 20.1329C65.6265 19.3642 65.0671 18.6235 64.4775 17.911C65.0572 16.6329 65.2822 15.0251 65.1432 13.1032C65.1241 12.8399 65.0105 12.5924 64.8233 12.4063C64.636 12.2202 64.3878 12.1081 64.1244 12.0907C62.1432 11.9485 60.4978 12.1907 59.2025 12.8126C55.7572 10.1602 51.8141 8.22711 47.6072 7.12822C47.8401 6.01081 47.908 4.86531 47.8088 3.72822C47.7899 3.46592 47.6772 3.2192 47.4912 3.03325C47.3053 2.8473 47.0586 2.73458 46.7963 2.71572C43.69 2.49228 41.4057 3.21415 40.0057 4.86103C39.7915 5.11159 39.6011 5.3815 39.4369 5.66728C39.2729 5.37988 39.0825 5.10839 38.8682 4.85634C37.4619 3.20947 35.1853 2.48759 32.0775 2.71103C31.8152 2.72989 31.5685 2.84262 31.3826 3.02857C31.1966 3.21451 31.0839 3.46123 31.065 3.72353C30.9654 4.85692 31.0327 5.9988 31.265 7.11259C30.3275 7.35426 29.4057 7.63811 28.4994 7.96415C24.9965 9.22856 21.7363 11.0841 18.8603 13.4501C17.4541 12.3563 15.451 11.9017 12.89 12.086C12.6277 12.1049 12.381 12.2176 12.1951 12.4036C12.0091 12.5895 11.8964 12.8362 11.8775 13.0985C11.6854 15.7548 12.19 17.8079 13.3666 19.2235C9.65022 24.2606 7.4709 30.2656 7.09162 36.5137C6.71234 42.7619 8.14929 48.9864 11.2291 54.436C12.6037 56.8579 14.2842 59.0929 16.2291 61.086H12.6213C11.6192 61.0873 10.6586 61.4859 9.95001 62.1944C9.24145 62.903 8.84284 63.8636 8.8416 64.8657C8.8416 65.288 8.67385 65.693 8.37526 65.9916C8.07667 66.2901 7.67169 66.4579 7.24941 66.4579H1.84473C1.55465 66.4579 1.27645 66.5731 1.07133 66.7782C0.866211 66.9834 0.750977 67.2616 0.750977 67.5516C0.750977 67.8417 0.866211 68.1199 1.07133 68.325C1.27645 68.5302 1.55465 68.6454 1.84473 68.6454H7.24941C8.25132 68.6441 9.21182 68.2455 9.92013 67.5369C10.6284 66.8283 11.0267 65.8676 11.0275 64.8657C11.028 64.4436 11.1958 64.0388 11.4943 63.7403C11.7928 63.4418 12.1976 63.2739 12.6197 63.2735H18.5728C24.3882 68.1775 31.7471 70.8726 39.3541 70.8845H39.4369C43.7648 70.8994 48.051 70.0399 52.0385 68.3575C56.026 66.675 59.6325 64.2044 62.6416 61.0938C63.8496 59.8544 64.9568 58.5205 65.9525 57.1048C68.8908 52.9159 70.7975 48.0919 71.5171 43.0261C72.2366 37.9603 71.7487 32.7962 70.0932 27.9548H76.826C77.116 27.9548 77.3942 27.8395 77.5994 27.6344C77.8045 27.4293 77.9197 27.1511 77.9197 26.861C77.9197 26.5709 77.8045 26.2927 77.5994 26.0876C77.3942 25.8825 77.116 25.7673 76.826 25.7673ZM61.5853 18.2204C60.5119 19.1392 59.001 19.1813 58.1197 19.1095C58.0494 18.2298 58.0916 16.722 58.9994 15.6532C59.7916 14.7157 61.1306 14.247 62.99 14.247C62.9807 16.0923 62.5088 17.4282 61.5853 18.2204ZM41.6713 6.27822C42.4635 5.34072 43.8025 4.87197 45.6619 4.87197C45.6525 6.72509 45.1807 8.06259 44.2557 8.85322C43.1869 9.76415 41.6728 9.8079 40.7916 9.72978C40.7213 8.85478 40.7635 7.34697 41.6713 6.27822ZM37.1947 6.26884C38.1135 7.34228 38.1557 8.85478 38.0822 9.73447C37.201 9.80634 35.69 9.76415 34.6166 8.8454C33.6932 8.05478 33.2213 6.71728 33.2103 4.86415C35.0619 4.87353 36.4025 5.34384 37.1947 6.26884ZM26.4744 14.2376C26.465 16.0907 25.9947 17.4267 25.0682 18.2188C23.9947 19.1392 22.4822 19.1798 21.6025 19.1079C21.5307 18.2267 21.5713 16.7157 22.49 15.6423C23.2838 14.7188 24.6213 14.247 26.4682 14.2392L26.4744 14.2376ZM18.0072 15.6438C18.926 16.7157 18.9682 18.2282 18.8963 19.1079C18.0166 19.1798 16.5072 19.1376 15.4385 18.2282C14.501 17.4376 14.0322 16.097 14.0322 14.2392C15.8775 14.2485 17.215 14.7188 18.0072 15.6438ZM17.6947 46.5673C17.7275 46.8133 17.7437 47.0613 17.7432 47.3095C17.7375 48.6693 17.2438 49.9819 16.352 51.0085C15.4602 52.0351 14.2295 52.7075 12.8838 52.9032C10.8319 49.1203 9.61033 44.9433 9.30048 40.6509C8.99062 36.3585 9.59964 32.0494 11.0869 28.011C12.6783 27.5649 14.3699 27.6325 15.9205 28.2044C17.4712 28.7763 18.8016 29.8233 19.7222 31.1959C20.6428 32.5685 21.1064 34.1968 21.0471 35.8484C20.9877 37.5001 20.4083 39.0908 19.3916 40.3938C18.7163 41.2604 18.2189 42.2519 17.9279 43.3114C17.637 44.3708 17.5583 45.4773 17.6963 46.5673H17.6947ZM41.0978 68.6516C41.0978 68.5345 41.0978 68.4438 41.0978 68.3969C41.0987 67.167 41.5874 65.9876 42.4569 65.1176C43.3263 64.2475 44.5054 63.758 45.7353 63.7563C47.5557 63.7563 48.8713 64.7563 49.6557 65.597C49.954 65.9183 50.2233 66.2655 50.4603 66.6345C47.4673 67.8027 44.3064 68.4837 41.0978 68.6516ZM69.6525 38.5626C69.649 44.7515 67.7323 50.788 64.165 55.8454C61.1197 60.1749 56.9982 63.6355 52.2072 65.886C51.8707 65.3251 51.4758 64.8013 51.0291 64.3235C49.5619 62.7532 47.6838 61.8876 45.7385 61.8876C44.0115 61.8901 42.356 62.5774 41.1351 63.7989C39.9142 65.0204 39.2276 66.6762 39.226 68.4032C39.226 68.4548 39.226 68.5595 39.226 68.7001C33.8516 68.6648 28.5842 67.1949 23.9682 64.4423C23.3525 64.0735 22.752 63.6839 22.1666 63.2735H26.065C26.3551 63.2735 26.6333 63.1583 26.8384 62.9532C27.0436 62.7481 27.1588 62.4698 27.1588 62.1798C27.1588 61.8897 27.0436 61.6115 26.8384 61.4064C26.6333 61.2013 26.3551 61.086 26.065 61.086H19.3932C17.2646 59.1973 15.4121 57.0187 13.89 54.6141C15.6891 54.1716 17.2618 53.0811 18.3071 51.5515C19.3524 50.0218 19.797 48.1604 19.5557 46.3235C19.4484 45.4793 19.5093 44.6222 19.7349 43.8016C19.9604 42.981 20.3461 42.2131 20.8697 41.5423C22.0147 40.0754 22.7146 38.3108 22.8866 36.458C23.0585 34.6052 22.6952 32.7419 21.8398 31.0894C20.9843 29.4369 19.6727 28.0646 18.0605 27.1353C16.4484 26.2061 14.6034 25.7589 12.7447 25.847C12.4775 25.8595 12.2119 25.8845 11.9479 25.9188C12.8025 24.0415 13.8498 22.258 15.0728 20.597C16.0909 21.0917 17.2114 21.3391 18.3432 21.3188C18.551 21.3188 18.7463 21.3188 18.9275 21.3001V25.0782C18.9275 25.3683 19.0428 25.6465 19.2479 25.8516C19.453 26.0567 19.7312 26.172 20.0213 26.172C20.3114 26.172 20.5896 26.0567 20.7947 25.8516C20.9998 25.6465 21.115 25.3683 21.115 25.0782V21.2579C21.4661 21.2989 21.8194 21.3192 22.1728 21.3188C23.4228 21.3188 25.1197 21.0563 26.4853 19.8954C28.1322 18.4892 28.8541 16.2095 28.6291 13.1032C28.6103 12.8412 28.4978 12.5946 28.3121 12.4087C28.1265 12.2228 27.8802 12.1099 27.6182 12.0907C26.5668 12.0011 25.5082 12.0504 24.4697 12.2376C25.9935 11.3625 27.5913 10.6232 29.2447 10.0282C30.1744 9.69384 31.1197 9.40322 32.076 9.1704C32.3805 9.67927 32.7657 10.1352 33.2166 10.5204C34.5822 11.6813 36.2744 11.9438 37.5307 11.9438C37.8322 11.9438 38.1103 11.9298 38.351 11.9079V15.7032C38.351 15.9933 38.4662 16.2715 38.6713 16.4766C38.8764 16.6817 39.1546 16.797 39.4447 16.797C39.7348 16.797 40.013 16.6817 40.2181 16.4766C40.4232 16.2715 40.5385 15.9933 40.5385 15.7032V11.9079C40.7791 11.9298 41.0572 11.9438 41.3588 11.9438C42.6088 11.9438 44.3072 11.6813 45.6728 10.5204C46.1202 10.1376 46.5032 9.6855 46.8072 9.18134C50.6271 10.1433 54.2225 11.8418 57.3916 14.1813L57.3416 14.2376C57.1248 14.4873 56.9318 14.7567 56.765 15.0423C56.6011 14.7549 56.4107 14.4834 56.1963 14.2313C54.79 12.5845 52.5119 11.8626 49.4057 12.086C49.1434 12.1049 48.8966 12.2176 48.7107 12.4036C48.5247 12.5895 48.412 12.8362 48.3932 13.0985C48.1682 16.2048 48.89 18.4907 50.5369 19.8907C51.9025 21.0517 53.5947 21.3142 54.8494 21.3142C55.1416 21.3142 55.4072 21.3001 55.6416 21.2798V25.0735C55.6416 25.3636 55.7568 25.6418 55.9619 25.8469C56.1671 26.052 56.4453 26.1673 56.7353 26.1673C57.0254 26.1673 57.3036 26.052 57.5087 25.8469C57.7139 25.6418 57.8291 25.3636 57.8291 25.0735V21.2798C58.0775 21.3032 58.365 21.3188 58.6791 21.3188C59.9291 21.3188 61.6275 21.0563 62.9932 19.8954C63.0463 19.8501 63.0963 19.8017 63.1494 19.7532C63.565 20.2782 63.9666 20.8173 64.3478 21.3735C65.3068 22.765 66.1467 24.2348 66.8588 25.7673H63.3822C62.3806 25.7685 61.4203 26.167 60.712 26.8752C60.0038 27.5835 59.6053 28.5438 59.6041 29.5454C59.6033 29.9673 59.4352 30.3716 59.1367 30.6698C58.8383 30.9679 58.4338 31.1356 58.0119 31.136H52.6057C52.3156 31.136 52.0374 31.2513 51.8323 31.4564C51.6271 31.6615 51.5119 31.9397 51.5119 32.2298C51.5119 32.5199 51.6271 32.7981 51.8323 33.0032C52.0374 33.2083 52.3156 33.3235 52.6057 33.3235H58.0119C59.014 33.3223 59.9746 32.9237 60.6832 32.2151C61.3917 31.5065 61.7904 30.5459 61.7916 29.5438C61.7924 29.1222 61.9603 28.7181 62.2584 28.42C62.5565 28.1219 62.9606 27.954 63.3822 27.9532H67.7713C69.0298 31.3482 69.667 34.9419 69.6525 38.5626ZM55.4103 19.1048C54.5291 19.1767 53.0182 19.1345 51.9447 18.2157C51.0197 17.4235 50.5494 16.0876 50.5385 14.2345C52.3916 14.2438 53.7291 14.7142 54.5213 15.6407C55.4416 16.7173 55.4838 18.2298 55.4103 19.1048Z" fill="#439539"/>
<path d="M48.785 37.8018C47.622 37.803 46.507 38.2654 45.6845 39.0876C44.862 39.9098 44.3991 41.0247 44.3975 42.1877C44.3975 42.5192 44.5292 42.8371 44.7636 43.0716C44.998 43.306 45.3159 43.4377 45.6475 43.4377C45.979 43.4377 46.2969 43.306 46.5313 43.0716C46.7658 42.8371 46.8975 42.5192 46.8975 42.1877C46.9116 41.6967 47.1166 41.2305 47.4689 40.8883C47.8211 40.546 48.293 40.3545 48.7842 40.3545C49.2754 40.3545 49.7472 40.546 50.0995 40.8883C50.4518 41.2305 50.6568 41.6967 50.6709 42.1877C50.6709 42.5192 50.8026 42.8371 51.037 43.0716C51.2714 43.306 51.5894 43.4377 51.9209 43.4377C52.2524 43.4377 52.5704 43.306 52.8048 43.0716C53.0392 42.8371 53.1709 42.5192 53.1709 42.1877C53.1697 41.0248 52.7072 39.91 51.8849 39.0877C51.0627 38.2655 49.9478 37.803 48.785 37.8018Z" fill="#439539"/>
<path d="M44.3889 47.3141C44.0574 47.3141 43.7394 47.4458 43.505 47.6803C43.2706 47.9147 43.1389 48.2326 43.1389 48.5641C43.1389 49.6876 42.6926 50.765 41.8982 51.5594C41.1038 52.3538 40.0264 52.8001 38.9029 52.8001C37.7795 52.8001 36.7021 52.3538 35.9077 51.5594C35.1133 50.765 34.667 49.6876 34.667 48.5641C34.667 48.2326 34.5353 47.9147 34.3009 47.6803C34.0665 47.4458 33.7485 47.3141 33.417 47.3141C33.0855 47.3141 32.7675 47.4458 32.5331 47.6803C32.2987 47.9147 32.167 48.2326 32.167 48.5641C32.167 50.3506 32.8767 52.0639 34.1399 53.3272C35.4031 54.5904 37.1165 55.3001 38.9029 55.3001C40.6894 55.3001 42.4027 54.5904 43.666 53.3272C44.9292 52.0639 45.6389 50.3506 45.6389 48.5641C45.6389 48.2326 45.5072 47.9147 45.2728 47.6803C45.0383 47.4458 44.7204 47.3141 44.3889 47.3141Z" fill="#439539"/>
<path d="M33.4414 42.1874C33.4197 41.0383 32.948 39.9436 32.1277 39.1386C31.3074 38.3337 30.204 37.8827 29.0547 37.8827C27.9054 37.8827 26.802 38.3337 25.9817 39.1386C25.1614 39.9436 24.6897 41.0383 24.668 42.1874C24.668 42.519 24.7997 42.8369 25.0341 43.0713C25.2685 43.3057 25.5864 43.4374 25.918 43.4374C26.2495 43.4374 26.5674 43.3057 26.8019 43.0713C27.0363 42.8369 27.168 42.519 27.168 42.1874C27.1821 41.6964 27.3871 41.2303 27.7394 40.888C28.0916 40.5457 28.5635 40.3542 29.0547 40.3542C29.5459 40.3542 30.0177 40.5457 30.37 40.888C30.7223 41.2303 30.9273 41.6964 30.9414 42.1874C30.9414 42.519 31.0731 42.8369 31.3075 43.0713C31.5419 43.3057 31.8599 43.4374 32.1914 43.4374C32.5229 43.4374 32.8409 43.3057 33.0753 43.0713C33.3097 42.8369 33.4414 42.519 33.4414 42.1874Z" fill="#439539"/>
<path d="M72.4445 69.8327C70.6867 69.1046 70.3148 68.7312 69.593 66.9749C69.4688 66.6752 69.2585 66.419 68.9887 66.2388C68.7189 66.0586 68.4018 65.9624 68.0773 65.9624C67.7529 65.9624 67.4358 66.0586 67.166 66.2388C66.8962 66.419 66.6859 66.6752 66.5617 66.9749C65.8336 68.7312 65.4602 69.1046 63.7039 69.8327C63.4042 69.9569 63.148 70.1672 62.9678 70.437C62.7876 70.7068 62.6914 71.0239 62.6914 71.3483C62.6914 71.6728 62.7876 71.9899 62.9678 72.2597C63.148 72.5295 63.4042 72.7398 63.7039 72.864C65.4227 73.5749 65.8492 74.003 66.5602 75.7202C66.6841 76.0204 66.8944 76.2771 67.1644 76.4576C67.4343 76.6382 67.7518 76.7346 68.0766 76.7346C68.4013 76.7346 68.7188 76.6382 68.9888 76.4576C69.2587 76.2771 69.469 76.0204 69.593 75.7202C70.3039 74.0015 70.732 73.5733 72.4492 72.8624C72.7489 72.7382 73.0051 72.5279 73.1853 72.2581C73.3655 71.9884 73.4617 71.6712 73.4617 71.3468C73.4617 71.0223 73.3655 70.7052 73.1853 70.4354C73.0051 70.1657 72.7489 69.9554 72.4492 69.8312L72.4445 69.8327ZM68.0695 74.503C67.3195 72.8577 66.5602 72.0983 64.9148 71.3483C66.5773 70.5952 67.3148 69.8577 68.0695 68.1937C68.8227 69.8577 69.5602 70.5952 71.2242 71.3483C69.582 72.0983 68.8211 72.8546 68.0727 74.503H68.0695Z" fill="#439539"/>
<path d="M3.75406 7.84527C5.47281 8.55621 5.89938 8.98277 6.61031 10.7015C6.73452 11.0012 6.94481 11.2574 7.21458 11.4376C7.48435 11.6178 7.80151 11.714 8.12594 11.714C8.45037 11.714 8.76752 11.6178 9.0373 11.4376C9.30707 11.2574 9.51735 11.0012 9.64156 10.7015C10.3541 8.98277 10.7806 8.55621 12.4994 7.84527C12.799 7.72074 13.055 7.51025 13.2351 7.24037C13.4151 6.97049 13.5113 6.65332 13.5113 6.32887C13.5113 6.00442 13.4151 5.68724 13.2351 5.41736C13.055 5.14748 12.799 4.93699 12.4994 4.81246C10.7431 4.0859 10.3697 3.71871 9.64313 1.95621C9.5186 1.65661 9.30811 1.40062 9.03823 1.22053C8.76835 1.04044 8.45117 0.944336 8.12672 0.944336C7.80227 0.944336 7.48509 1.04044 7.21521 1.22053C6.94533 1.40062 6.73485 1.65661 6.61031 1.95621C5.88375 3.71246 5.51656 4.0859 3.75406 4.81246C3.45447 4.93699 3.19847 5.14748 3.01838 5.41736C2.8383 5.68724 2.74219 6.00442 2.74219 6.32887C2.74219 6.65332 2.8383 6.97049 3.01838 7.24037C3.19847 7.51025 3.45447 7.72074 3.75406 7.84527ZM8.12907 3.17496C8.88063 4.83902 9.61813 5.57496 11.2806 6.32965C9.63531 7.0734 8.87594 7.83902 8.12594 9.48433C7.3775 7.83902 6.62438 7.0734 4.97125 6.32965C6.63531 5.57496 7.37281 4.83902 8.12594 3.17496H8.12907Z" fill="#439539"/>
</svg>

<svg width="78" height="77" fill="none" xmlns="http://www.w3.org/2000/svg"><path d="M76.826 25.767h-7.575a32.234 32.234 0 00-3.095-5.634 31.474 31.474 0 00-1.678-2.222c.58-1.278.804-2.886.665-4.808a1.094 1.094 0 00-1.019-1.012c-1.98-.143-3.626.1-4.921.722a32.453 32.453 0 00-11.596-5.685c.233-1.117.301-2.263.202-3.4a1.094 1.094 0 00-1.013-1.012c-3.106-.224-5.39.498-6.79 2.145-.215.25-.405.52-.57.806a5.33 5.33 0 00-.568-.81c-1.406-1.648-3.683-2.37-6.79-2.146a1.093 1.093 0 00-1.013 1.013c-.1 1.133-.032 2.275.2 3.389-.938.241-1.86.525-2.766.851a32.587 32.587 0 00-9.639 5.486c-1.406-1.094-3.409-1.548-5.97-1.364a1.093 1.093 0 00-1.013 1.012c-.192 2.657.313 4.71 1.49 6.126a32.433 32.433 0 00-2.138 35.212 32.472 32.472 0 005 6.65h-3.608a3.785 3.785 0 00-3.78 3.78 1.592 1.592 0 01-1.592 1.592H1.845a1.094 1.094 0 100 2.187h5.404a3.783 3.783 0 003.779-3.78 1.594 1.594 0 011.592-1.591h5.953a32.314 32.314 0 0020.781 7.61h.083a32.132 32.132 0 0023.205-9.79 32.513 32.513 0 003.31-3.99 32.468 32.468 0 004.141-29.15h6.733a1.094 1.094 0 000-2.187zm-15.24-7.547c-1.074.92-2.585.961-3.466.89-.07-.88-.028-2.388.88-3.457.792-.937 2.13-1.406 3.99-1.406-.01 1.845-.481 3.181-1.405 3.973zM41.67 6.278c.793-.937 2.132-1.406 3.99-1.406-.008 1.853-.48 3.19-1.405 3.981-1.07.911-2.583.955-3.464.877-.07-.875-.029-2.383.88-3.452zm-4.476-.01c.919 1.074.96 2.587.887 3.466-.881.072-2.392.03-3.465-.889-.924-.79-1.396-2.128-1.407-3.98 1.852.009 3.193.479 3.985 1.404zm-10.72 7.97c-.01 1.853-.48 3.189-1.407 3.98-1.073.921-2.586.962-3.466.89-.071-.881-.03-2.392.888-3.466.794-.923 2.131-1.395 3.978-1.403l.006-.001zm-8.468 1.406c.919 1.072.961 2.584.89 3.464-.88.072-2.39.03-3.458-.88-.938-.79-1.407-2.131-1.407-3.989 1.845.01 3.183.48 3.975 1.405zm-.312 30.923a5.677 5.677 0 01-4.81 6.336 30.268 30.268 0 01-1.798-24.892 7.847 7.847 0 018.305 12.383 8.34 8.34 0 00-1.696 6.173h-.001zm23.403 22.085v-.255a4.644 4.644 0 014.637-4.64c1.82 0 3.136 1 3.92 1.84.299.321.568.669.805 1.038a30.072 30.072 0 01-9.362 2.017zm28.555-30.09a30.014 30.014 0 01-5.488 17.283 30.445 30.445 0 01-11.958 10.041 9.274 9.274 0 00-1.178-1.563c-1.467-1.57-3.345-2.435-5.29-2.435a6.522 6.522 0 00-6.513 6.515v.297a30.178 30.178 0 01-15.258-4.258 29.924 29.924 0 01-1.801-1.168h3.898a1.094 1.094 0 100-2.188h-6.672a30.362 30.362 0 01-5.503-6.472 7.528 7.528 0 005.666-8.29 6.447 6.447 0 011.314-4.782 9.724 9.724 0 00-8.922-15.623 29.798 29.798 0 013.125-5.322 7.188 7.188 0 003.27.722c.208 0 .403 0 .584-.019v3.778a1.094 1.094 0 002.188 0v-3.82c.351.04.704.061 1.058.06 1.25 0 2.947-.262 4.312-1.423 1.647-1.406 2.37-3.686 2.144-6.792a1.094 1.094 0 00-1.01-1.012c-1.052-.09-2.11-.04-3.15.147a29.956 29.956 0 014.776-2.21c.93-.334 1.875-.625 2.831-.858.304.51.69.965 1.14 1.35 1.366 1.161 3.058 1.424 4.315 1.424.301 0 .58-.014.82-.036v3.795a1.094 1.094 0 102.188 0v-3.795c.24.022.518.036.82.036 1.25 0 2.948-.263 4.314-1.424a5.5 5.5 0 001.134-1.339c3.82.962 7.415 2.66 10.585 5l-.05.057a5.36 5.36 0 00-.577.804 5.32 5.32 0 00-.569-.81c-1.406-1.647-3.684-2.37-6.79-2.146a1.094 1.094 0 00-1.013 1.012c-.225 3.107.497 5.393 2.144 6.793 1.366 1.16 3.058 1.423 4.312 1.423.293 0 .558-.014.793-.034v3.793a1.094 1.094 0 102.187 0V21.28c.248.023.536.039.85.039 1.25 0 2.948-.263 4.314-1.424.053-.045.103-.093.156-.142a30.078 30.078 0 013.71 6.014h-3.477a3.783 3.783 0 00-3.778 3.778 1.594 1.594 0 01-1.592 1.591h-5.406a1.094 1.094 0 000 2.188h5.406a3.784 3.784 0 003.78-3.78 1.594 1.594 0 011.59-1.59h4.39a30.176 30.176 0 011.88 10.609zM55.41 19.106c-.88.072-2.392.03-3.465-.89-.925-.791-1.396-2.127-1.407-3.98 1.854.009 3.191.48 3.983 1.406.92 1.076.963 2.589.89 3.464z" fill="#439539"/><path d="M48.785 37.802a4.392 4.392 0 00-4.387 4.386 1.25 1.25 0 002.5 0 1.887 1.887 0 013.773 0 1.25 1.25 0 002.5 0 4.39 4.39 0 00-4.386-4.386zm-4.396 9.512a1.25 1.25 0 00-1.25 1.25 4.236 4.236 0 11-8.472 0 1.25 1.25 0 00-2.5 0 6.736 6.736 0 0013.472 0 1.25 1.25 0 00-1.25-1.25zm-10.948-5.127a4.388 4.388 0 00-8.773 0 1.25 1.25 0 102.5 0 1.887 1.887 0 013.773 0 1.25 1.25 0 102.5 0zm39.004 27.646c-1.758-.728-2.13-1.102-2.852-2.858a1.64 1.64 0 00-3.031 0c-.728 1.756-1.102 2.13-2.858 2.858a1.64 1.64 0 000 3.031c1.719.71 2.145 1.139 2.856 2.856a1.64 1.64 0 003.033 0c.71-1.719 1.139-2.147 2.856-2.858a1.64 1.64 0 000-3.03h-.004zm-4.375 4.67c-.75-1.645-1.51-2.405-3.155-3.155 1.662-.753 2.4-1.49 3.154-3.154.754 1.664 1.491 2.401 3.155 3.154-1.642.75-2.403 1.507-3.151 3.155h-.003zM3.754 7.845c1.719.711 2.145 1.138 2.856 2.856a1.64 1.64 0 003.032 0c.712-1.718 1.139-2.145 2.857-2.856a1.642 1.642 0 000-3.033c-1.756-.726-2.13-1.093-2.856-2.856a1.642 1.642 0 00-3.033 0c-.726 1.756-1.093 2.13-2.856 2.856a1.642 1.642 0 000 3.033zm4.375-4.67c.752 1.664 1.49 2.4 3.152 3.155-1.646.743-2.405 1.509-3.155 3.154C7.378 7.84 6.624 7.074 4.97 6.33c1.664-.755 2.402-1.491 3.155-3.155h.003z" fill="#439539"/></svg>
